www/assets/icons/wallet.svg

<svg xmlns="http://www.w3.org/2000/svg" width="24" height="24" viewBox="0 0 24 24" fill='currentColor'><path d="M18 4H6C3.79 4 2 5.79 2 8v8c0 2.21 1.79 4 4 4h12c2.21 0 4-1.79 4-4V8c0-2.21-1.79-4-4-4m-1.86 9.77c-.24.2-.57.28-.88.2L4.15 11.25C4.45 10.52 5.16 10 6 10h12c.67 0 1.26.34 1.63.84zM6 6h12c1.1 0 2 .9 2 2v.55c-.59-.34-1.27-.55-2-.55H6c-.73 0-1.41.21-2 .55V8c0-1.1.9-2 2-2"/></svg>

<svg width="24" height="24" viewBox="0 0 24 24" xmlns="http://www.w3.org/2000/svg" fill='currentColor'><path d="M18 4H6C3.79 4 2 5.79 2 8V16C2 18.21 3.79 20 6 20H18C20.21 20 22 18.21 22 16V8C22 5.79 20.21 4 18 4ZM16.14 13.77C15.9 13.97 15.57 14.05 15.26 13.97L4.15 11.25C4.45 10.52 5.16 10 6 10H18C18.67 10 19.26 10.34 19.63 10.84L16.14 13.77ZM6 6H18C19.1 6 20 6.9 20 8V8.55C19.41 8.21 18.73 8 18 8H6C5.27 8 4.59 8.21 4 8.55V8C4 6.9 4.9 6 6 6Z"/></svg>
